X:1
T:Jesus, My All in All
T:Charles Price Jones (1865-1949)
T:Jesus, My All in All
T:Public Domain
T:Public Domain
C:Charles Price Jones (1865-1949)
Z:Public Domain
%%score ( 1 2 ) ( 3 4 )
L:1/8
M:6/8
K:G
V:1 treble 
V:2 treble 
V:3 bass 
V:4 bass 
V:1
 [DG]>[DG][DG] [GB]>[FA][DG] | [EG]>[DF][CE] [CE] [B,D]2 | [DG]>[DG][DG] [GB]2 G | [Fd]3- [Fd]2 z | %4
w: 1.~Je- sus, my Sav- ior, I|love and a- dore Thee,|Je- sus my all in|No- *|
w: 2.~Pre- cious Re- deem- er from|sin and from sor- row,|Je- sus my all in|Je- *|
w: 3.~Je- sus Who died for my|sins, pre- cious Mas- ter!|Je- sus my all in|Je- *|
w: 4.~Je- sus my wis- dom and|right- eous- ness ev- er,|Je- sus my all in|Je- *|
 [DG]>[DG][DG] [GB]>[FA][DG] | [EG]>[DF][CE] [CE] [B,D]2 | [DG]>[DG][DG] [GB]2 [FA] | G3- G2 z || %8
w: thing on earth would I wor-|ship be- fore Thee, Je-|sus my all in all.||
w: sus the same in the past|and to- mor- row, Je-|sus my all in all.||
w: sus my com- fort in ev-|ery dis- as- ter, Je-|sus my all in all.||
w: sus my ho- li- ness, fail-|ing me ne- ver, Je-|sus my all in all.||
"^Refrain" [Gd]>[Gd][Gd] [Ge]2 [Ge] | [Gd]3- [Gd]2 z | [DB]>[DB][DB] [EG]2 [GB] | [FA]3- [FA]2 z | %12
w: ||||
w: ||||
w: ||||
w: ||||
 [DG]>[DG][DG] [GB]>[FA][DG] | [EG]>[DF][CE] [CE] [B,D]2 | [DG]>[DG][DG] [GB]2 [FA] | G6 |] %16
w: ||||
w: ||||
w: ||||
w: ||||
V:2
 x6 | x6 | x5 G | x6 | x6 | x6 | x6 | G3- G2 x || x6 | x6 | x6 | x6 | x6 | x6 | x6 | G6 |] %16
w: ||all;||||||||||||||
w: ||all;||||||||||||||
w: ||all;||||||||||||||
w: ||all;||||||||||||||
V:3
 [G,B,]>[G,B,][G,B,] [G,D]>[G,C][G,B,] | [C,C]>[C,C][C,G,] [G,,G,] [G,,G,]2 | %2
w: ~ ~ ~ ~ ~ ~|~ ~ ~ ~ ~|
 [G,B,]>[G,B,][G,B,] [G,D]2 [G,B,] | [D,A,]3- [D,A,]2 z | [G,B,]>[G,B,][G,B,] [G,D]>[G,C][G,B,] | %5
w: ~ ~ ~ ~ ~|~ *|~ ~ ~ ~ ~ ~|
 [C,C]>[C,C][C,G,] [G,,G,] [G,,G,]2 | [D,B,]>[D,B,][D,B,] [D,D]2 [D,C] | [G,,B,]3- [G,,B,]2 z || %8
w: ~ ~ ~ ~ ~|~ ~ ~ ~ ~|~ *|
 [G,B,]>[G,B,][G,B,] [C,C]2 [C,C] | [G,B,]3- [G,B,]2 z | G,>G,G, [E,B,]2 [B,,D] | %11
w: Je- sus my all in|all, *|Je- sus my all in|
 [D,D]3- [D,D]2 z | [G,B,]>[G,B,][G,B,] [G,D]>[G,C][G,B,] | [C,C]>[C,C][C,G,] [G,,G,] [G,,G,]2 | %14
w: would *|grieve Him if e’er I would|leave Him, Je- sus my|
 [D,B,]>[D,B,][D,B,] [D,D]2 [D,C] | [G,,B,]6 |] %16
w: all in all. * *||
V:4
 x6 | x6 | x6 | x6 | x6 | x6 | x6 | x6 || x6 | x6 | G,>G,G, x3 | x6 | x6 | x6 | x6 | x6 |] %16
w: ||||||||||all; How it||||||

